packages/icons/src/assets/raw/outlined/SVG/outlined-finance-tagdiscount.svg

<svg viewBox="0 0 24 24" xmlns="http://www.w3.org/2000/svg">
  <path d="M 9.752 21.467 C 9.248 21.47 8.764 21.268 8.412 20.907 L 3.052 15.557 C 2.313 14.812 2.313 13.612 3.052 12.867 L 12.612 3.307 C 12.933 2.979 13.364 2.783 13.822 2.757 L 16.992 2.537 C 17.539 2.506 18.074 2.71 18.462 3.097 L 20.992 5.557 C 21.364 5.955 21.547 6.495 21.492 7.037 L 21.212 10.127 C 21.177 10.574 20.981 10.993 20.662 11.307 L 11.092 20.907 C 10.74 21.269 10.256 21.471 9.752 21.467 Z M 17.122 3.537 L 17.062 3.537 L 13.892 3.747 C 13.673 3.765 13.467 3.861 13.312 4.017 L 3.752 13.577 C 3.401 13.932 3.401 14.502 3.752 14.857 L 9.112 20.207 C 9.279 20.375 9.506 20.468 9.742 20.467 C 9.981 20.466 10.21 20.373 10.382 20.207 L 19.992 10.637 C 20.147 10.489 20.243 10.29 20.262 10.077 L 20.532 6.977 C 20.558 6.713 20.462 6.452 20.272 6.267 L 17.762 3.797 C 17.592 3.629 17.361 3.535 17.122 3.537 Z M 17.302 8.177 C 16.132 8.185 15.392 6.923 15.971 5.906 C 16.549 4.889 18.012 4.879 18.603 5.888 C 18.74 6.121 18.812 6.387 18.812 6.657 C 18.812 7.493 18.138 8.172 17.302 8.177 Z M 17.302 6.177 C 16.902 6.169 16.643 6.598 16.837 6.948 C 17.03 7.299 17.531 7.308 17.737 6.965 C 17.788 6.882 17.814 6.785 17.812 6.687 C 17.829 6.394 17.596 6.146 17.302 6.147 Z"/>
</svg>

<svg xmlns="http://www.w3.org/2000/svg" viewBox="0 0 24 24">
  <path d="M9.76 21.43a1.86 1.86 0 01-1.34-.56l-5.36-5.35a1.91 1.91 0 010-2.69l9.56-9.56a1.84 1.84 0 011.21-.55L17 2.5a1.93 1.93 0 011.47.56L21 5.52A1.89 1.89 0 0121.5 7l-.28 3.09a1.86 1.86 0 01-.55 1.18l-9.57 9.6a1.85 1.85 0 01-1.34.56zM17.13 3.5h-.06l-3.17.21a.92.92 0 00-.58.27l-9.56 9.56a.91.91 0 000 1.28l5.36 5.35a.88.88 0 00.63.26.93.93 0 00.64-.26L20 10.6a.88.88 0 00.27-.56l.27-3.1a.87.87 0 00-.26-.71l-2.51-2.47a.9.9 0 00-.64-.26z"/>
  <path d="M17.31 8.14a1.52 1.52 0 111.51-1.52 1.52 1.52 0 01-1.51 1.52zm0-2a.52.52 0 10.51.51.51.51 0 00-.51-.54z"/>
</svg>
